X: 26
T: The Lance Dancers
N: Derived from pawnee26.krn
O: Oklahoma, U.S.A.
N: from Pawnee Music by Frances Densmore, 1926
Z: transcribed to **kern format by David Huron, August 2000
C: Skidi and Chaui Bands, 1919
L: 1/8
M: 5/4
Q: 1/4=88
K: B clef=bass
%%linebreak <none>
F> FF2F> EE2E2 | 
F> FF2F> F (E> F)C2 | 
F> B,B,2B,> DB,2B,2[M:3/4] | 
G F F EC2[M:2/4] | 
G F F E | 
F CB,2[M:5/4] | 
G> FC2C> CB,2B,2 | 
F> CC2C> CB,2B,2 | 
D> F,F,2F,> E,E,2E,2 | 
G,> F,F,2F,> F, (E,> F)C,2 | 
B,,> B,,B,,2B,,> B,,B,,2B,,2[M:3/4] | 
G, F, F, E,C,2[M:2/4] | 
G, F, F, E, | 
F, C,B,,2[M:5/4] | 
G,> F,C,2C,> C,B,,2B,,2 | 
C,> C,C,2C,> B,,B,,2B,,2 | 
D,6-D,4 |]  



